(
SynthDef(\drum_kick, {
	arg freq=440, gate=1, amp=0.5, source,pan = 0.0 ;
	source =
	Pan2.ar(
		SinOsc.ar(EnvGen.kr(Env.perc(0.0001, 1.5, 1, -200), gate, 1000, 45, doneAction:2), 1, 1) +
		((BPF.ar([GrayNoise.ar(6),GrayNoise.ar(6)],EnvGen.kr(Env.perc(0.001, 0.3, 1, -200), gate, 6000, 70), 1.5)).distort * Line.kr(0.3,0,0.1))
		*
		EnvGen.kr(Env.perc(0.0001, 0.09, amp, 8)),0);
	Out.ar(0, source);
}).writeDefFile;

)

Synth(\drum_kick);
